X:92
T: LEB WOHL MEIN BRAEUTCHEN SCHOEN
N: B0579
O: Europa, Mitteleuropa, Deutschland
R: Staende -, Soldaten - Lied, national
M: 4/4
L: 1/16
K: D
A4 | F4D4G4B4 | A8z4
d2A2 | F4A3FE3DE3F | D8z2
D2F2D2 | A6A2A6A2 | c4A4z2
A2F2D2 | A6A2A6d2 | c4A4z2
A2B2c2 | d6c2B2A2G2F2 | E8z2
E2F2G2 | A4B3GF4E4 | D8z2
A2B2c2 | d6c2B2A2G2F2 | E8z2
E2F2G2 | A4B3GF4E4 | D8z4

@@@ Tune index: 2310
